X:1440
T:Down with the French
A:Wyresdale, Lancashire
B:E and J Winder, 1835-41
L:1/8
M:6/8
O:England
Z:Richard Robinson 
%%TUNEURL: http://www.leeds.ac.uk/music/Info/RRTuneBk/gettune/00001226.html
%%ID:00001226
K:C
g2e g2e | cdc e3 | f2e f2e | dfc BAG | g2e g2e | cdc e3 | dfe dcB | c3 c3 ::
d2d e2d | BcA G3 | cAc ece | g2e c3  | d2d e2c | BcA G3 | ABc dcB | c3 c3 |]
